**kern	**silbe	**kern	**silbe	**kern	**silbe
*ICvox	*	*ICvox	*	*ICvox	*
*B-:	*	*B-:	*	*B-:	*
*M4/4	*	*M4/4	*	*M4/4	*
*clefG2	*	*clefG2	*	*clefG2	*
r;	.	r;	.	r;	.
=1	=1	=1	=1	=1	=1
1r	.	1r	.	1r	.
=2	=2	=2	=2	=2	=2
1r	.	1r	.	1r	.
=3	=3	=3	=3	=3	=3
1r	.	1r	.	1r	.
=4	=4	=4	=4	=4	=4
1r	.	1r	.	1r	.
=5	=5	=5	=5	=5	=5
1r	.	1r	.	1r	.
=6	=6	=6	=6	=6	=6
8d	Des-	1r	.	1r	.
8d	-mond	.	.	.	.
8d	has	.	.	.	.
8d	a	.	.	.	.
8d	bar-	.	.	.	.
8d	-row	.	.	.	.
8c	in	.	.	.	.
8B-	the	.	.	.	.
=7	=7	=7	=7	=7	=7
8A	mar-	1r	.	1r	.
8c	-ket	.	.	.	.
8r	.	.	.	.	.
4.c	place	.	.	.	.
8r	.	.	.	.	.
[8e-	Mo-	.	.	.	.
=8	=8	=8	=8	=8	=8
8e-]	_	1r	.	1r	.
8e-	-lly	.	.	.	.
8e-	is	.	.	.	.
8e-	the	.	.	.	.
8e-	sing-	.	.	.	.
8e-	-er	.	.	.	.
8d	in	.	.	.	.
8c	a	.	.	.	.
=9	=9	=9	=9	=9	=9
4B-	band	1r	.	1r	.
4r	.	.	.	.	.
4r	.	.	.	.	.
8r	.	.	.	.	.
[8f	Des-	.	.	.	.
=10	=10	=10	=10	=10	=10
8f]	_	1r	.	1r	.
8f	-mond	.	.	.	.
8f	says	.	.	.	.
8f	to	.	.	.	.
8f	Mo-	.	.	.	.
8f	-lly	.	.	.	.
8e-	girl	.	.	.	.
8d	I	.	.	.	.
=11	=11	=11	=11	=11	=11
8e-	like	1r	.	1r	.
8f	your	.	.	.	.
8r	.	.	.	.	.
4g	face	.	.	.	.
8g	and	.	.	.	.
8f	Mo-	.	.	.	.
8e-	-lly	.	.	.	.
=12	=12	=12	=12	=12	=12
8d	says	1r	.	1r	.
8d	this	.	.	.	.
8e-	as	.	.	.	.
8d	she	.	.	.	.
8c	takes	.	.	.	.
8e-	him	.	.	.	.
8d	by	.	.	.	.
16c	the	.	.	.	.
[16B-	hand	.	.	.	.
=13	=13	=13	=13	=13	=13
4B-]	_	2r	.	1r	.
4r	.	.	.	.	.
8r	.	8r	.	.	.
8B-	Ob-	8B-	Ob-	.	.
8d	-la-	8d	-la-	.	.
8f	-di	8f	-di	.	.
=14	=14	=14	=14	=14	=14
8r	.	8r	.	1r	.
8B-	Ob-	8B-	Ob-	.	.
8d	-la-	8d	-la-	.	.
8f	-da	8f	-da	.	.
8r	.	8r	.	.	.
8B-	Life	8B-	Life	.	.
8d	goes	8d	goes	.	.
[8f	on	[8f	on	.	.
=15	=15	=15	=15	=15	=15
4.f]	_	4.f]	_	1r	.
4.b-	bra	4.b-	bra	.	.
8r	.	8r	.	.	.
[8f	La	[8f	La	.	.
=16	=16	=16	=16	=16	=16
8f]	_	8f]	_	1r	.
16e-	la	16e-	la	.	.
16d	_	16d	_	.	.
8d	how	8d	how	.	.
8e-	the	8e-	the	.	.
8d	life	8d	life	.	.
8c	goes	8c	goes	.	.
8B-	_	8B-	_	.	.
[8B-	on	[8B-	on	.	.
=17	=17	=17	=17	=17	=17
8B-]	_	8B-]	_	1r	.
8r	.	8r	.	.	.
4r	.	4r	.	.	.
8r	.	8r	.	.	.
8B-	Ob-	8B-	Ob-	.	.
8d	-la-	8d	-la-	.	.
8f	-di	8f	-di	.	.
=18	=18	=18	=18	=18	=18
8r	.	8r	.	1r	.
8B-	Ob-	8B-	Ob-	.	.
8d	-la-	8d	-la-	.	.
8f	-da	8f	-da	.	.
8r	.	8r	.	.	.
8B-	Life	8B-	Life	.	.
8d	goes	8d	goes	.	.
[8f	on	[8f	on	.	.
=19	=19	=19	=19	=19	=19
4.f]	_	4.f]	_	1r	.
4b-	bra	4b-	bra	.	.
8r	.	8r	.	.	.
8r	.	8r	.	.	.
[8f	La	[8f	La	.	.
=20	=20	=20	=20	=20	=20
8f]	_	8f]	_	1r	.
16e-	la	16e-	la	.	.
16d	_	16d	_	.	.
8d	how	8d	how	.	.
8e-	the	8e-	the	.	.
8d	life	8d	life	.	.
8c	goes	8c	goes	.	.
8B-	_	8B-	_	.	.
[8B-	on	[8B-	on	.	.
=21	=21	=21	=21	=21	=21
8B-]	_	8B-]	_	1r	.
8r	.	8r	.	.	.
4r	.	4r	.	.	.
2r	.	2r	.	.	.
=22	=22	=22	=22	=22	=22
8d	Des-	1r	.	1r	.
8d	-mond	.	.	.	.
8d	takes	.	.	.	.
8d	a	.	.	.	.
8d	tro-	.	.	.	.
8d	-lly	.	.	.	.
8c	to	.	.	.	.
8B-	the	.	.	.	.
=23	=23	=23	=23	=23	=23
8A	jewel-	1r	.	1r	.
4c	-lers	.	.	.	.
4c	store	.	.	.	.
8r	.	.	.	.	.
8r	.	.	.	.	.
[8e-	Buys	.	.	.	.
=24	=24	=24	=24	=24	=24
8e-]	_	1r	.	1r	.
8e-	a	.	.	.	.
8e-	twen-	.	.	.	.
8e-	-ty	.	.	.	.
8e-	ca-	.	.	.	.
8e-	-rat	.	.	.	.
8d	gol-	.	.	.	.
8c	-den	.	.	.	.
=25	=25	=25	=25	=25	=25
4B-	ring	1r	.	1r	.
8r	.	.	.	.	.
4b-	Ring	.	.	.	.
8r	.	.	.	.	.
8r	.	.	.	.	.
[8f	Takes	.	.	.	.
=26	=26	=26	=26	=26	=26
8f]	_	1r	.	1r	.
8f	it	.	.	.	.
8f	back	.	.	.	.
8f	to	.	.	.	.
8f	Mo-	.	.	.	.
8f	-lly	.	.	.	.
8e-	wait-	.	.	.	.
8d	-ing	.	.	.	.
=27	=27	=27	=27	=27	=27
8e-	at	1r	.	1r	.
8f	the	.	.	.	.
8r	.	.	.	.	.
4g	door	.	.	.	.
8g	And	.	.	.	.
8f	as	.	.	.	.
8e-	he	.	.	.	.
=28	=28	=28	=28	=28	=28
8d	gives	1r	.	1r	.
8d	it	.	.	.	.
8e-	to	.	.	.	.
8d	her	.	.	.	.
8c	she	.	.	.	.
16e-	be-	.	.	.	.
8.d	-gins	.	.	.	.
8c	to	.	.	.	.
=29	=29	=29	=29	=29	=29
8B-	sing	2r	.	1r	.
8r	.	.	.	.	.
8r	.	.	.	.	.
8b-	sing	.	.	.	.
8r	.	8r	.	.	.
8B-	Ob-	8B-	Ob-	.	.
8d	-la-	8d	-la-	.	.
8f	-di	8f	-di	.	.
=30	=30	=30	=30	=30	=30
8r	.	8r	.	1r	.
8B-	Ob-	8B-	Ob-	.	.
8d	-la-	8d	-la-	.	.
8f	-da	8f	-da	.	.
8r	.	8r	.	.	.
8B-	Life	8B-	Life	.	.
8d	goes	8d	goes	.	.
[8f	on	[8f	on	.	.
=31	=31	=31	=31	=31	=31
4.f]	_	4.f]	_	1r	.
4.b-	bra	4.b-	bra	.	.
8r	.	8r	.	.	.
[8f	La	[8f	La	.	.
=32	=32	=32	=32	=32	=32
8f]	_	8f]	_	1r	.
16e-	la	16e-	la	.	.
16d	_	16d	_	.	.
8d	how	8d	how	.	.
8e-	the	8e-	the	.	.
8d	life	8d	life	.	.
8c	goes	8c	goes	.	.
8B-	_	8B-	_	.	.
[8B-	on	[8B-	on	.	.
=33	=33	=33	=33	=33	=33
8B-]	_	8B-]	_	1r	.
8r	.	8r	.	.	.
4r	.	4r	.	.	.
8r	.	8r	.	.	.
8B-	Ob-	8B-	Ob-	.	.
8d	-la-	8d	-la-	.	.
8f	-di	8f	-di	.	.
=34	=34	=34	=34	=34	=34
8r	.	8r	.	1r	.
8B-	Ob-	8B-	Ob-	.	.
8d	-la-	8d	-la-	.	.
8f	-da	8f	-da	.	.
8r	.	8r	.	.	.
8B-	Life	8B-	Life	.	.
8d	goes	8d	goes	.	.
[8f	on	[8f	on	.	.
=35	=35	=35	=35	=35	=35
4.f]	_	4.f]	_	1r	.
4b-	bra	4b-	bra	.	.
8r	.	8r	.	.	.
8r	.	8r	.	.	.
[8f	La	[8f	La	.	.
=36	=36	=36	=36	=36	=36
8f]	_	8f]	_	1r	.
16e-	la	16e-	la	.	.
16d	_	16d	_	.	.
8d	how	8d	how	.	.
8e-	the	8e-	the	.	.
8d	life	8d	life	.	.
8c	goes	8c	goes	.	.
8B-	_	8B-	_	.	.
[8B-	on	[8B-	on	.	.
=37	=37	=37	=37	=37	=37
8B-]	_	8B-]	_	1r	.
8r	.	8r	.	.	.
4r	.	4r	.	.	.
8r	.	2r	.	.	.
16d	yeah	.	.	.	.
16c	_	.	.	.	.
8B-	_	.	.	.	.
8r	.	.	.	.	.
=38	=38	=38	=38	=38	=38
8r	.	1r	.	1r	.
16B-	In	.	.	.	.
16B-	a	.	.	.	.
16e-	cou-	.	.	.	.
16e-	-ple	.	.	.	.
8f	of	.	.	.	.
4g	years	.	.	.	.
8f	they	.	.	.	.
8g	have	.	.	.	.
=39	=39	=39	=39	=39	=39
8b-	built	1r	.	1r	.
8r	.	.	.	.	.
8e-	a	.	.	.	.
8g	home	.	.	.	.
8r	.	.	.	.	.
4B-	sweet	.	.	.	.
8d	home	.	.	.	.
=40	=40	=40	=40	=40	=40
1r	.	1r	.	8d	_
.	.	.	.	4d	_
.	.	.	.	8d	_
.	.	.	.	8c	_
.	.	.	.	4c	_
.	.	.	.	8c	_
=41	=41	=41	=41	=41	=41
1r	.	1r	.	8B-	_
.	.	.	.	4B-	_
.	.	.	.	8B-	_
.	.	.	.	8A-	_
.	.	.	.	4A-	_
.	.	.	.	8A-	_
=42	=42	=42	=42	=42	=42
8r	.	1r	.	1G	_
16B-	With	.	.	.	.
16B-	a	.	.	.	.
16e-	cou-	.	.	.	.
16e-	-ple	.	.	.	.
8f	of	.	.	.	.
8g	kids	.	.	.	.
8r	.	.	.	.	.
8f	run-	.	.	.	.
8g	-ning	.	.	.	.
=43	=43	=43	=43	=43	=43
8b-	in	1r	.	1r	.
8r	.	.	.	.	.
8e-	the	.	.	.	.
4g	yard	.	.	.	.
8r	.	.	.	.	.
8r	.	.	.	.	.
8B-	Of	.	.	.	.
=44	=44	=44	=44	=44	=44
8d	Des-	1r	.	1r	.
8d	-mond	.	.	.	.
8d	and	.	.	.	.
4e-	Mo-	.	.	.	.
4d	-lly	.	.	.	.
8d	Jones	.	.	.	.
=45	=45	=45	=45	=45	=45
4c	_	1r	.	1r	.
4r	.	.	.	.	.
2r	.	.	.	.	.
=46	=46	=46	=46	=46	=46
8d	Ha-	1r	.	1r	.
8d	-ppy	.	.	.	.
8d	e-	.	.	.	.
8d	-ver	.	.	.	.
8d	af-	.	.	.	.
8d	-ter	.	.	.	.
8c	in	.	.	.	.
8B-	the	.	.	.	.
=47	=47	=47	=47	=47	=47
8A	mar-	1r	.	1r	.
8c	-ket	.	.	.	.
8r	.	.	.	.	.
4.c	place	.	.	.	.
8r	.	.	.	.	.
[8e-	Des-	.	.	.	.
=48	=48	=48	=48	=48	=48
8e-]	_	1r	.	1r	.
8e-	-mond	.	.	.	.
8e-	lets	.	.	.	.
8e-	the	.	.	.	.
8e-	chil-	.	.	.	.
8e-	-dren	.	.	.	.
8d	lend	.	.	.	.
8c	a	.	.	.	.
=49	=49	=49	=49	=49	=49
4B-	hand	1r	.	1r	.
4r	.	.	.	.	.
4r	.	.	.	.	.
8r	.	.	.	.	.
[8f	Mo-	.	.	.	.
=50	=50	=50	=50	=50	=50
8f]	_	1r	.	1r	.
8f	-lly	.	.	.	.
8f	stays	.	.	.	.
8f	at	.	.	.	.
8f	home	.	.	.	.
8f	and	.	.	.	.
8e-	does	.	.	.	.
8d	her	.	.	.	.
=51	=51	=51	=51	=51	=51
8e-	pre-	1r	.	1r	.
8f	-tty	.	.	.	.
8r	.	.	.	.	.
4g	face	.	.	.	.
8g	And	.	.	.	.
8f	in	.	.	.	.
8e-	the	.	.	.	.
=52	=52	=52	=52	=52	=52
8d	eve-	1r	.	1r	.
8d	-ning	.	.	.	.
8e-	she	.	.	.	.
8d	still	.	.	.	.
8c	sing-	.	.	.	.
8e-	-ing	.	.	.	.
8d	with	.	.	.	.
16c	the	.	.	.	.
[16B-	band	.	.	.	.
=53	=53	=53	=53	=53	=53
4B-]	_	2r	.	8r	.
.	.	.	.	8B-	_
8r	.	.	.	4d	_
4f	Yes!	.	.	.	.
.	.	8r	.	8f	_
8f	Oob-	8B-	Ob-	4g	_
8f	-la-	8d	-la-	.	.
8f	-di	8f	-di	[8b-	_
=54	=54	=54	=54	=54	=54
8r	.	8r	.	8b-]	_
8B-	Ob-	8B-	Ob-	8b-	_
8d	-la-	8d	-la-	4cc	_
8f	-da	8f	-da	.	.
8r	.	8r	.	8dd	_
8B-	Life	8B-	Life	8b-	_
8d	goes	8d	goes	8r	.
[8f	on	[8f	on	[8cc	_
=55	=55	=55	=55	=55	=55
4.f]	_	4.f]	_	8cc]	_
.	.	.	.	8b-	_
.	.	.	.	4a	_
4b-	bra	4.b-	bra	.	.
.	.	.	.	8b-	_
8r	.	.	.	8g	_
8r	.	8r	.	8r	.
[8f	La	[8f	La	[8B-	_
=56	=56	=56	=56	=56	=56
8f]	_	8f]	_	8B-]	_
16e-	la	16e-	la	8B-	_
16d	_	16d	_	.	.
8d	how	8d	how	4d	_
8e-	the	8e-	the	.	.
8d	life	8d	life	8f	_
8c	goes	8c	goes	8f	_
8B-	_	8B-	_	8r	.
[8B-	on	[8B-	on	8B-	_
=57	=57	=57	=57	=57	=57
8B-]	_	8B-]	_	8r	.
8r	.	8r	.	8B-	_
8r	.	4r	.	4d	_
4f	Hey	.	.	.	.
.	.	8r	.	8f	_
8f	Ob-	8B-	Ob-	4g	_
8f	-la-	8d	-la-	.	.
8f	-di	8f	-di	[8b-	_
=58	=58	=58	=58	=58	=58
8r	.	8r	.	8b-]	_
8B-	Ob-	8B-	Ob-	8b-	_
8d	-la-	8d	-la-	4cc	_
8f	-da	8f	-da	.	.
8r	.	8r	.	8dd	_
8B-	Life	8B-	Life	8b-	_
8d	goes	8d	goes	8r	.
[8f	on	[8f	on	[8cc	_
=59	=59	=59	=59	=59	=59
4.f]	_	4.f]	_	8cc]	_
.	.	.	.	8b-	_
.	.	.	.	4a	_
4b-	bra	4b-	bra	.	.
.	.	.	.	8b-	_
8r	.	8r	.	8g	_
8r	.	8r	.	8r	.
[8f	La	[8f	La	[8B-	_
=60	=60	=60	=60	=60	=60
8f]	_	8f]	_	8B-]	_
16e-	la	16e-	la	8B-	_
16d	_	16d	_	.	.
8d	how	8d	how	4d	_
8e-	the	8e-	the	.	.
8d	life	8d	life	8f	_
8c	goes	8c	goes	8f	_
8B-	_	8B-	_	8r	.
[8B-	on	[8B-	on	8B-	_
=61	=61	=61	=61	=61	=61
8B-]	_	8B-]	_	1r	.
8r	.	8r	.	.	.
4r	.	4r	.	.	.
2r	.	2r	.	.	.
=62	=62	=62	=62	=62	=62
8r	.	1r	.	1r	.
16B-	In	.	.	.	.
16B-	a	.	.	.	.
16e-	cou-	.	.	.	.
16e-	-ple	.	.	.	.
8f	of	.	.	.	.
4g	years	.	.	.	.
8f	they	.	.	.	.
8g	have	.	.	.	.
=63	=63	=63	=63	=63	=63
8b-	built	1r	.	1r	.
8r	.	.	.	.	.
8e-	a	.	.	.	.
8g	home	.	.	.	.
8r	.	.	.	.	.
4B-	sweet	.	.	.	.
8d	home	.	.	.	.
=64	=64	=64	=64	=64	=64
1r	.	1r	.	8d	_
.	.	.	.	4d	_
.	.	.	.	8d	_
.	.	.	.	8c	_
.	.	.	.	4c	_
.	.	.	.	8c	_
=65	=65	=65	=65	=65	=65
1r	.	1r	.	8B-	_
.	.	.	.	4B-	_
.	.	.	.	8B-	_
.	.	.	.	8A-	_
.	.	.	.	4A-	_
.	.	.	.	8A-	_
=66	=66	=66	=66	=66	=66
8r	.	1r	.	1G	_
16B-	With	.	.	.	.
16B-	a	.	.	.	.
16e-	cou-	.	.	.	.
16e-	-ple	.	.	.	.
8f	of	.	.	.	.
8g	kids	.	.	.	.
8r	.	.	.	.	.
8f	run-	.	.	.	.
8g	-ning	.	.	.	.
=67	=67	=67	=67	=67	=67
8b-	in	1r	.	1r	.
8r	.	.	.	.	.
8e-	the	.	.	.	.
4g	yard	.	.	.	.
8r	.	.	.	.	.
8r	.	.	.	.	.
8B-	Of	.	.	.	.
=68	=68	=68	=68	=68	=68
8d	Des-	1r	.	8r	.
8d	-mond	.	.	8cc	_
8d	and	.	.	8b-	_
4e-	Mo-	.	.	8a	_
.	.	.	.	8g	_
4d	-lly	.	.	8f	_
.	.	.	.	8e-	_
16d	Jones	.	.	8d	_
16e-	_	.	.	.	.
=69	=69	=69	=69	=69	=69
8d	_	1r	.	8c	_
4.c	_	.	.	8B-	_
.	.	.	.	8A	_
.	.	.	.	8G	_
8r	.	.	.	8F	_
8f	Hey	.	.	8E-	_
8c	_	.	.	8D	_
8d	Hap-	.	.	8C	_
=70	=70	=70	=70	=70	=70
8r	.	1r	.	4BB-	_
8d	-py	.	.	.	.
8d	e-	.	.	4r	.
8d	-ver	.	.	.	.
8d	af-	.	.	2r	.
8d	-ter	.	.	.	.
8c	in	.	.	.	.
8B-	the	.	.	.	.
=71	=71	=71	=71	=71	=71
8A	mar-	1r	.	1r	.
8c	-ket	.	.	.	.
8r	.	.	.	.	.
4.c	place	.	.	.	.
8r	.	.	.	.	.
[8e-	Mo-	.	.	.	.
=72	=72	=72	=72	=72	=72
8e-]	_	1r	.	1r	.
8e-	-lly	.	.	.	.
8e-	lets	.	.	.	.
8e-	the	.	.	.	.
8e-	chil-	.	.	.	.
8e-	-dren	.	.	.	.
8d	lend	.	.	.	.
8c	a	.	.	.	.
=73	=73	=73	=73	=73	=73
4B-	hand	1r	.	1r	.
4r	.	.	.	.	.
4r	.	.	.	.	.
8r	.	.	.	.	.
[8f	Des-	.	.	.	.
=74	=74	=74	=74	=74	=74
8f]	_	1r	.	1r	.
8f	-mond	.	.	.	.
8f	stays	.	.	.	.
8f	at	.	.	.	.
8f	home	.	.	.	.
8f	and	.	.	.	.
8e-	does	.	.	.	.
8d	his	.	.	.	.
=75	=75	=75	=75	=75	=75
8e-	pre-	1r	.	1r	.
8f	-tty	.	.	.	.
8r	.	.	.	.	.
4g	face	.	.	.	.
8g	And	.	.	.	.
8f	in	.	.	.	.
8e-	the	.	.	.	.
=76	=76	=76	=76	=76	=76
8d	eve-	1r	.	1r	.
8d	-ning	.	.	.	.
8e-	she's	.	.	.	.
8d	a	.	.	.	.
8c	sing-	.	.	.	.
8e-	-er	.	.	.	.
8d	with	.	.	.	.
16c	the	.	.	.	.
[16B-	band	.	.	.	.
=77	=77	=77	=77	=77	=77
4B-]	_	2r	.	8r	.
.	.	.	.	8B-	_
8r	.	.	.	4d	_
8f	Yeah!	.	.	.	.
8r	.	8r	.	8f	_
8f	Ob-	8B-	Ob-	4g	_
8f	-la-	8d	-la-	.	.
8f	-di	8f	-di	[8b-	_
=78	=78	=78	=78	=78	=78
8r	.	8r	.	8b-]	_
8f	Ob-	8B-	Ob-	8b-	_
8f	-la-	8d	-la-	4cc	_
8f	-da	8f	-da	.	.
8r	.	8r	.	8dd	_
8B-	Life	8B-	Life	8b-	_
8d	goes	8d	goes	8r	.
[8f	on	[8f	on	[8cc	_
=79	=79	=79	=79	=79	=79
4.f]	_	4.f]	_	8cc]	_
.	.	.	.	8b-	_
.	.	.	.	4a	_
4.b-	bra	4.b-	bra	.	.
.	.	.	.	8b-	_
.	.	.	.	8g	_
8r	.	8r	.	8r	.
[8f	La	[8f	La	[8B-	_
=80	=80	=80	=80	=80	=80
8f]	_	8f]	_	8B-]	_
16e-	la	16e-	la	8B-	_
16d	_	16d	_	.	.
8d	how	8d	how	4d	_
8e-	the	8e-	the	.	.
8d	life	8d	life	8f	_
8c	goes	8c	goes	8f	_
8B-	_	8B-	_	8r	.
[8B-	on	[8B-	on	8B-	_
=81	=81	=81	=81	=81	=81
8B-]	_	8B-]	_	8r	.
8r	.	8r	.	8B-	_
8r	.	4r	.	4d	_
4f	Hey!	.	.	.	.
.	.	8r	.	8f	_
8f	Ob-	8B-	Ob-	4g	_
8f	-la-	8d	-la-	.	.
8f	-di	8f	-di	[8b-	_
=82	=82	=82	=82	=82	=82
8r	.	8r	.	8b-]	_
8f	Oob-	8B-	Ob-	8b-	_
8f	-la-	8d	-la-	4cc	_
4f	-da	8f	-da	.	.
.	.	8r	.	8dd	_
8B-	Life	8B-	Life	8b-	_
8d	goes	8d	goes	8r	.
[8f	on	[8f	on	[8cc	_
=83	=83	=83	=83	=83	=83
4.f]	_	4.f]	_	8cc]	_
.	.	.	.	8b-	_
.	.	.	.	4a	_
4b-	bra	4b-	bra	.	.
.	.	.	.	8b-	_
8r	.	8r	.	8g	_
8r	.	8r	.	8r	.
[8f	La	[8f	La	[8B-	_
=84	=84	=84	=84	=84	=84
8f]	_	8f]	_	8B-]	_
16e-	la	16e-	la	8B-	_
16d	_	16d	_	.	.
8d	how	8d	how	4d	_
8e-	the	8e-	the	.	.
8d	life	8d	life	8f	_
8c	goes	8c	goes	8f	_
8B-	_	8B-	_	8r	.
[8B-	on	[8B-	on	8B-	_
=85	=85	=85	=85	=85	=85
8B-]	_	8B-]	_	1r	.
8r	.	8r	.	.	.
4r	.	4r	.	.	.
4r	.	2r	.	.	.
16r	.	.	.	.	.
16g	And	.	.	.	.
16g	if	.	.	.	.
16g	you	.	.	.	.
=86	=86	=86	=86	=86	=86
8b-	want	1r	.	1r	.
8b-	some	.	.	.	.
16g	fun	.	.	.	.
16b-	_	.	.	.	.
8r	.	.	.	.	.
4.r	.	.	.	.	.
8g	Sing	.	.	.	.
=87	=87	=87	=87	=87	=87
8f	Ob-	1r	.	1r	.
8e-	-La-	.	.	.	.
8d	-Di	.	.	.	.
8c	Bla-	.	.	.	.
4B-	-Da	.	.	.	.
4r	.	.	.	.	.
=88	=88	=88	=88	=88	=88
r;	.	r;	.	r;	.
r;	.	r;	.	r;	.
*-	*-	*-	*-	*-	*-
!!!ENC: Nathaniel Condit-Schultz
!!!MBID: 5118f7b4-eafc-491a-9158-ee646dff2236
